X:954
L:1/8
M:4/4
K:Amix
 a | A<Ae>d eg a2 | gdeg d>cBG | AAe>d Bdea | gagB A2S A :| B | Aaag eg a2 | deg>a g>fgd | 
 eaag egae | gag>B A2 AB | Aaag eg a2 | deg>a g>fgd | e>deg agea | degB A2 A ||

